X: 157
T:Boys of the To
R:jig
Z:From O'Neill's
M:6/8
L:1/8
K:G
V: chords
 x6 | x6 | x6 | x3  x3 |  x6 | x6 | x3  x3 | x6 :|
 x6 |   x3  x3 |  x6         |   x3  x3 |
 x6 |   x6          |  x3  x3 | x6 :|
 x6 |   x3  x3  |  x3  x3 | x6 |
V:melody
~G3 GBd|edB dBG|~G3 GBd|edB AFD|~G3 GBd|edB ~g3|
edB AGA|BGG G3::def ~g3|afd edB|def ~g3|afd e2d|
[1 def gfg|afd efg|edB AGA|BGG ~G3:|
[2 def gbb|faa efg|edB AGA|BGG G2|]
